X: 21614
T: Killavil Fancy, The
R: reel
M: 4/4
K: Gmajor
|B3 G A2BA|GE~E2 CEGE|DGBG A2BA|GE{G}ED EFGA|
B3 G A2BA|GE~E2 cEGE|DGBG A2BA|GE{G}ED EGGD||
.G2 Bd efge|dB~B2 dBAB|.G2 Bd efge|dBAB AGED|
G2 Bd efge|dB~B2 dega|bgag egde|gedB AGEG||

